X: 34644
T: Road To Bangor
R: jig
M: 6/8
K: Eminor
B2E EFG|F2B, B,^C^D|E2G GFE|A3 AGF|
EGB BGG|Add d2d|efg gfe|f^dB B^c^d|
egb bge|f^dB B^c^d|e2g gfe|dcB AGF|
~E3 ~F3|GAB c2c|AGF B,E^D|E3 EGB||
|:d2B d2B|AFD DFA|GFG BAG|FAF B,^C^D|
~E3 ~F3|GAB c2c|AGF B,E^D|1 E3 EGB:|2 E3 E3||

